packages/ui-icons/svg/Line/crop.svg

<svg viewBox="0 0 1920 1920" xmlns="http://www.w3.org/2000/svg">
    <path fill-rule="evenodd" clip-rule="evenodd" d="M426.667 0h106.666v1386.67H1920v106.66H426.667V0zM320 426.667H0v106.666h320V426.667zm320 0v106.666h746.67V1280h106.66V426.667H640zM1493.33 1600h-106.66v320h106.66v-320z"/>
</svg>

<svg viewBox="0 0 1920 1920" xmlns="http://www.w3.org/2000/svg">
    <path fill-rule="evenodd" clip-rule="evenodd" stroke="none" stroke-width="1" d="M426.667 0H533.333V1386.67H1920V1493.33H426.667V0zM320 426.667H0V533.333H320V426.667z M640 426.667V533.333H1386.67V1280H1493.33V426.667H640zM1493.33 1600H1386.67V1920H1493.33V1600z"/>
</svg>
